resources/icons/logo.svg

<?xml version="1.0" encoding="UTF-8" standalone="no"?>
<svg width="99px" height="100px" viewBox="0 0 99 100" version="1.1" xmlns="http://www.w3.org/2000/svg" xmlns:xlink="http://www.w3.org/1999/xlink" xmlns:sketch="http://www.bohemiancoding.com/sketch/ns">
    <!-- Generator: Sketch 3.4.4 (17249) - http://www.bohemiancoding.com/sketch -->
    <title>logo</title>
    <desc>Created with Sketch.</desc>
    <defs></defs>
    <g id="Page-1" stroke="none" stroke-width="1" fill="none" fill-rule="evenodd" sketch:type="MSPage">
        <path d="M0,11.9922166 C0,5.36909826 5.37536108,0 11.9910007,0 L87.0089993,0 C93.6314461,0 99,5.38150526 99,11.9922166 L99,62.0077834 C99,68.6309017 93.623852,73.8784126 86.9942819,73.7558632 C86.9942819,73.7558632 67.2819824,73.1936035 65.5058594,74 C63.7297363,74.8063965 50.2671941,98.4559654 50.2671941,98.4559654 C49.4457208,99.8886381 48.1188509,99.8762856 47.3086904,98.4458281 C47.3086904,98.4458281 34.1660156,74.9592285 31.9589844,74 C29.7519531,73.0407715 11.9777804,73.696129 11.9777804,73.696129 C5.36263493,73.8639523 0,68.6184947 0,62.0077834 L0,11.9922166 Z M18,22.0074612 C18,20.898771 18.8988921,20 19.9916575,20 L61.0083425,20 C62.1083045,20 63,20.9003455 63,22.0074612 L63,52.9925388 C63,54.101229 62.1011079,55 61.0083425,55 L19.9916575,55 C18.8916955,55 18,54.0996545 18,52.9925388 L18,22.0074612 Z M84.1689012,20.8917963 C84.6024205,20.5465108 84.9473874,20.7099088 84.939367,21.2594468 L84.4421387,55.3281245 C84.4421387,55.3281245 67.2183633,38.6815406 67.2183633,36.4862278 C67.2183633,34.290915 84.1689012,20.8917963 84.1689012,20.8917963 Z" id="logo" fill="#FFFFFF" sketch:type="MSShapeGroup"></path>
    </g>
</svg>

<svg xmlns="http://www.w3.org/2000/svg" viewBox="0 0 99 100">
  <path fill="#FFF" fill-rule="evenodd" d="M0 11.992C0 5.37 5.375 0 11.99 0h75.02C93.63 0 99 5.382 99 11.992v50.016c0 6.623-5.376 11.87-12.006 11.748 0 0-19.712-.562-21.488.244-1.776.806-15.24 24.456-15.24 24.456-.82 1.433-2.147 1.42-2.957-.01 0 0-13.144-23.487-15.35-24.446-2.208-.96-19.982-.304-19.982-.304C5.363 73.864 0 68.618 0 62.008V11.992zm18 10.015C18 20.9 18.9 20 19.992 20h41.016c1.1 0 1.992.9 1.992 2.007v30.986C63 54.1 62.1 55 61.008 55H19.992c-1.1 0-1.992-.9-1.992-2.007V22.007zm66.17-1.115c.432-.345.777-.182.77.367l-.498 34.068S67.218 38.682 67.218 36.486c0-2.195 16.95-15.594 16.95-15.594z"/>
</svg>
